!! 00000] TT[WS
!!!OTL: Xiao guafu Shangfen
!!!ARE: Asia, China,ÿShanxi Linxian
!! Ethnic Group: Han
!! WI, 207
!!!SCT: J0244
!!!YEM: Copyright 1995, estate of Helmut Schaffrath.
**kern
*ICvox
*Ivox
*M4/4
*k[b-e-]
*B-:
{8bb-
8aa
8ccc
8fff
4bb-
8gg
8ff
=1
8bb-
8bb-
8ff
8cc
2ff}
=2
{8bb-
8aa
8ccc
8fff
8bb-
8ccc
8gg
8ff
=3
8bb-
8bb-
8ff
8cc
2ff}
=4
{8ff
8ff
4bb-
8ccc
8fff
8ccc
8bb-
=5
8bb-
8aa
8ccc
8fff
4.aa
8r}
=6
{8cc
4ff
8bb-
8ccc
8fff
8bb-
8aa
=7
8bb-
8ff
8ff
8cc
2b-}
==
!!!AGN: Xiaodiao. Qingge, Aisu
!!!ONB: ESAC (Essen Associative Code) Database: CHINA
!!!AMT: simple quadruple
!!!AIN: vox
!!!EED: Helmut Schaffrath
!!!EEV: 1.0
*-
